X: 8604
T: Cronin's
R: hornpipe
M: 4/4
K: Gmajor
BA|:GABd dBde|g3e dega|bage dBGA|BAAG AcBA|
GABd dBde|g3e dega|bage dBAB|G2 GF G4:|
|:fg|afdc d2 ga|bged e2 ga|bgaf gedB|BAAG AcBA|
GABd dBde|g3e dega|bage dBAB|G2 GF G4:|

